X: 8406
T: Cowboy Halling
R: reel
M: 4/4
K: Dmajor
AA|:A2 DD D2BB|B2A2 FGA2|B2B2 A3 A|1 B2c2 d2AA:|2 B2c2d2 ff||
|:f2 AA A2 gg|g2 AA A2 aa|a2 AA A3 A|1 B2c2 d2 ff:|2 B2c2 d4||
|:e3 d c2d2|e2c2e2f2|e3d c2d2|e2c2f2e2|
e3 d c2d2|e2c2e2f2|e3 d c2e2|1 f2e2e4:|2 f2e2e2||

